bernoullicharts/2014_lin_x_4_0_bits.svg

<?xml version="1.0" encoding="utf-8" standalone="no"?>
<!DOCTYPE svg PUBLIC "-//W3C//DTD SVG 1.1//EN"
  "http://www.w3.org/Graphics/SVG/1.1/DTD/svg11.dtd">
<!-- Created with matplotlib (https://matplotlib.org/) -->
<svg height="345.6pt" version="1.1" viewBox="0 0 460.8 345.6" width="460.8pt" xmlns="http://www.w3.org/2000/svg" xmlns:xlink="http://www.w3.org/1999/xlink">
 <defs>
  <style type="text/css">
*{stroke-linecap:butt;stroke-linejoin:round;}
  </style>
 </defs>
 <g id="figure_1">
  <g id="patch_1">
   <path d="M 0 345.6 
L 460.8 345.6 
L 460.8 0 
L 0 0 
z
" style="fill:#ffffff;"/>
  </g>
  <g id="axes_1">
   <g id="patch_2">
    <path d="M 57.6 307.584 
L 414.72 307.584 
L 414.72 41.472 
L 57.6 41.472 
z
" style="fill:#ffffff;"/>
   </g>
   <g id="matplotlib.axis_1">
    <g id="xtick_1">
     <g id="line2d_1">
      <defs>
       <path d="M 0 0 
L 0 3.5 
" id="m716684e4a2" style="stroke:#000000;stroke-width:0.8;"/>
      </defs>
      <g>
       <use style="stroke:#000000;stroke-width:0.8;" x="73.654132" xlink:href="#m716684e4a2" y="307.584"/>
      </g>
     </g>
     <g id="text_1">
      <text style="font-family:DejaVu Sans;font-size:10px;font-style:normal;font-weight:normal;text-anchor:middle;" transform="rotate(-0, 73.654132, 322.182437)" x="73.654132" y="322.182437">0.000</text>
     </g>
    </g>
    <g id="xtick_2">
     <g id="line2d_2">
      <g>
       <use style="stroke:#000000;stroke-width:0.8;" x="118.303061" xlink:href="#m716684e4a2" y="307.584"/>
      </g>
     </g>
     <g id="text_2">
      <text style="font-family:DejaVu Sans;font-size:10px;font-style:normal;font-weight:normal;text-anchor:middle;" transform="rotate(-0, 118.303061, 322.182437)" x="118.303061" y="322.182437">0.025</text>
     </g>
    </g>
    <g id="xtick_3">
     <g id="line2d_3">
      <g>
       <use style="stroke:#000000;stroke-width:0.8;" x="162.951991" xlink:href="#m716684e4a2" y="307.584"/>
      </g>
     </g>
     <g id="text_3">
      <text style="font-family:DejaVu Sans;font-size:10px;font-style:normal;font-weight:normal;text-anchor:middle;" transform="rotate(-0, 162.951991, 322.182437)" x="162.951991" y="322.182437">0.050</text>
     </g>
    </g>
    <g id="xtick_4">
     <g id="line2d_4">
      <g>
       <use style="stroke:#000000;stroke-width:0.8;" x="207.600921" xlink:href="#m716684e4a2" y="307.584"/>
      </g>
     </g>
     <g id="text_4">
      <text style="font-family:DejaVu Sans;font-size:10px;font-style:normal;font-weight:normal;text-anchor:middle;" transform="rotate(-0, 207.600921, 322.182437)" x="207.600921" y="322.182437">0.075</text>
     </g>
    </g>
    <g id="xtick_5">
     <g id="line2d_5">
      <g>
       <use style="stroke:#000000;stroke-width:0.8;" x="252.249851" xlink:href="#m716684e4a2" y="307.584"/>
      </g>
     </g>
     <g id="text_5">
      <text style="font-family:DejaVu Sans;font-size:10px;font-style:normal;font-weight:normal;text-anchor:middle;" transform="rotate(-0, 252.249851, 322.182437)" x="252.249851" y="322.182437">0.100</text>
     </g>
    </g>
    <g id="xtick_6">
     <g id="line2d_6">
      <g>
       <use style="stroke:#000000;stroke-width:0.8;" x="296.89878" xlink:href="#m716684e4a2" y="307.584"/>
      </g>
     </g>
     <g id="text_6">
      <text style="font-family:DejaVu Sans;font-size:10px;font-style:normal;font-weight:normal;text-anchor:middle;" transform="rotate(-0, 296.89878, 322.182437)" x="296.89878" y="322.182437">0.125</text>
     </g>
    </g>
    <g id="xtick_7">
     <g id="line2d_7">
      <g>
       <use style="stroke:#000000;stroke-width:0.8;" x="341.54771" xlink:href="#m716684e4a2" y="307.584"/>
      </g>
     </g>
     <g id="text_7">
      <text style="font-family:DejaVu Sans;font-size:10px;font-style:normal;font-weight:normal;text-anchor:middle;" transform="rotate(-0, 341.54771, 322.182437)" x="341.54771" y="322.182437">0.150</text>
     </g>
    </g>
    <g id="xtick_8">
     <g id="line2d_8">
      <g>
       <use style="stroke:#000000;stroke-width:0.8;" x="386.19664" xlink:href="#m716684e4a2" y="307.584"/>
      </g>
     </g>
     <g id="text_8">
      <text style="font-family:DejaVu Sans;font-size:10px;font-style:normal;font-weight:normal;text-anchor:middle;" transform="rotate(-0, 386.19664, 322.182437)" x="386.19664" y="322.182437">0.175</text>
     </g>
    </g>
    <g id="text_9">
     <text style="font-family:DejaVu Sans;font-size:10px;font-style:normal;font-weight:normal;text-anchor:middle;" transform="rotate(-0, 236.16, 335.860562)" x="236.16" y="335.860562">Probability</text>
    </g>
   </g>
   <g id="matplotlib.axis_2">
    <g id="ytick_1">
     <g id="line2d_9">
      <defs>
       <path d="M 0 0 
L -3.5 0 
" id="m9088c9fd09" style="stroke:#000000;stroke-width:0.8;"/>
      </defs>
      <g>
       <use style="stroke:#000000;stroke-width:0.8;" x="57.6" xlink:href="#m9088c9fd09" y="303.296845"/>
      </g>
     </g>
     <g id="text_10">
      <text style="font-family:DejaVu Sans;font-size:10px;font-style:normal;font-weight:normal;text-anchor:end;" transform="rotate(-0, 50.6, 307.096064)" x="50.6" y="307.096064">0</text>
     </g>
    </g>
    <g id="ytick_2">
     <g id="line2d_10">
      <g>
       <use style="stroke:#000000;stroke-width:0.8;" x="57.6" xlink:href="#m9088c9fd09" y="259.238815"/>
      </g>
     </g>
     <g id="text_11">
      <text style="font-family:DejaVu Sans;font-size:10px;font-style:normal;font-weight:normal;text-anchor:end;" transform="rotate(-0, 50.6, 263.038034)" x="50.6" y="263.038034">100</text>
     </g>
    </g>
    <g id="ytick_3">
     <g id="line2d_11">
      <g>
       <use style="stroke:#000000;stroke-width:0.8;" x="57.6" xlink:href="#m9088c9fd09" y="215.180785"/>
      </g>
     </g>
     <g id="text_12">
      <text style="font-family:DejaVu Sans;font-size:10px;font-style:normal;font-weight:normal;text-anchor:end;" transform="rotate(-0, 50.6, 218.980004)" x="50.6" y="218.980004">200</text>
     </g>
    </g>
    <g id="ytick_4">
     <g id="line2d_12">
      <g>
       <use style="stroke:#000000;stroke-width:0.8;" x="57.6" xlink:href="#m9088c9fd09" y="171.122755"/>
      </g>
     </g>
     <g id="text_13">
      <text style="font-family:DejaVu Sans;font-size:10px;font-style:normal;font-weight:normal;text-anchor:end;" transform="rotate(-0, 50.6, 174.921974)" x="50.6" y="174.921974">300</text>
     </g>
    </g>
    <g id="ytick_5">
     <g id="line2d_13">
      <g>
       <use style="stroke:#000000;stroke-width:0.8;" x="57.6" xlink:href="#m9088c9fd09" y="127.064725"/>
      </g>
     </g>
     <g id="text_14">
      <text style="font-family:DejaVu Sans;font-size:10px;font-style:normal;font-weight:normal;text-anchor:end;" transform="rotate(-0, 50.6, 130.863943)" x="50.6" y="130.863943">400</text>
     </g>
    </g>
    <g id="ytick_6">
     <g id="line2d_14">
      <g>
       <use style="stroke:#000000;stroke-width:0.8;" x="57.6" xlink:href="#m9088c9fd09" y="83.006695"/>
      </g>
     </g>
     <g id="text_15">
      <text style="font-family:DejaVu Sans;font-size:10px;font-style:normal;font-weight:normal;text-anchor:end;" transform="rotate(-0, 50.6, 86.805913)" x="50.6" y="86.805913">500</text>
     </g>
    </g>
    <g id="text_16">
     <text style="font-family:DejaVu Sans;font-size:10px;font-style:normal;font-weight:normal;text-anchor:middle;" transform="rotate(-90, 25.432812, 174.528)" x="25.432812" y="174.528">Average Bits Consumed Per Call</text>
    </g>
   </g>
   <g id="line2d_15">
    <path clip-path="url(#p2e6ee8ca19)" d="M 73.832727 260.47244 
L 91.869091 265.152284 
L 109.905455 261.123618 
L 127.941818 260.977345 
L 145.978182 259.637981 
L 164.014545 261.811804 
L 182.050909 260.215141 
L 200.087273 258.078327 
L 218.123636 258.330339 
L 236.16 254.99867 
M 272.232727 252.719989 
L 290.269091 252.978169 
L 308.305455 249.095775 
L 326.341818 246.338624 
M 380.450909 226.348614 
" style="fill:none;stroke:#1f77b4;stroke-linecap:square;stroke-width:1.5;"/>
   </g>
   <g id="line2d_16">
    <path clip-path="url(#p2e6ee8ca19)" d="M 73.832727 255.556445 
L 91.869091 256.689618 
L 109.905455 256.914313 
L 127.941818 248.971532 
L 145.978182 250.035093 
L 164.014545 250.831662 
L 182.050909 250.52678 
L 200.087273 237.943807 
L 218.123636 241.45347 
L 236.16 232.974061 
L 254.196364 231.679636 
L 272.232727 219.17068 
L 290.269091 222.559624 
L 308.305455 209.881485 
L 326.341818 204.969896 
L 344.378182 189.387452 
L 362.414545 190.185783 
M 398.487273 166.825335 
" style="fill:none;stroke:#ff7f0e;stroke-linecap:square;stroke-width:1.5;"/>
   </g>
   <g id="line2d_17">
    <path clip-path="url(#p2e6ee8ca19)" d="M 73.832727 295.488 
L 91.869091 294.322225 
L 109.905455 291.138591 
L 127.941818 290.584341 
L 145.978182 289.965767 
L 164.014545 288.067747 
L 182.050909 284.847986 
L 200.087273 284.375684 
L 218.123636 273.080967 
L 236.16 268.105934 
L 254.196364 259.062583 
L 272.232727 255.806695 
L 290.269091 238.136781 
" style="fill:none;stroke:#2ca02c;stroke-linecap:square;stroke-width:1.5;"/>
   </g>
   <g id="line2d_18">
    <path clip-path="url(#p2e6ee8ca19)" d="M 73.832727 278.398771 
L 91.869091 279.104581 
L 109.905455 279.599793 
L 127.941818 271.043724 
L 145.978182 273.123263 
L 164.014545 272.665059 
L 182.050909 271.879064 
L 200.087273 271.13977 
L 218.123636 266.896982 
L 236.16 264.371576 
L 254.196364 261.313948 
L 272.232727 252.440661 
L 290.269091 249.495822 
L 308.305455 244.486424 
L 326.341818 240.650732 
L 344.378182 229.376282 
L 362.414545 229.150705 
" style="fill:none;stroke:#d62728;stroke-linecap:square;stroke-width:1.5;"/>
   </g>
   <g id="line2d_19">
    <path clip-path="url(#p2e6ee8ca19)" d="M 91.869091 53.568 
L 109.905455 155.576438 
L 127.941818 189.752252 
L 145.978182 196.782152 
L 164.014545 205.298569 
L 182.050909 212.696793 
L 200.087273 219.769869 
L 218.123636 211.395319 
L 236.16 227.051781 
" style="fill:none;stroke:#9467bd;stroke-linecap:square;stroke-width:1.5;"/>
   </g>
   <g id="patch_3">
    <path d="M 57.6 307.584 
L 57.6 41.472 
" style="fill:none;stroke:#000000;stroke-linecap:square;stroke-linejoin:miter;stroke-width:0.8;"/>
   </g>
   <g id="patch_4">
    <path d="M 414.72 307.584 
L 414.72 41.472 
" style="fill:none;stroke:#000000;stroke-linecap:square;stroke-linejoin:miter;stroke-width:0.8;"/>
   </g>
   <g id="patch_5">
    <path d="M 57.6 307.584 
L 414.72 307.584 
" style="fill:none;stroke:#000000;stroke-linecap:square;stroke-linejoin:miter;stroke-width:0.8;"/>
   </g>
   <g id="patch_6">
    <path d="M 57.6 41.472 
L 414.72 41.472 
" style="fill:none;stroke:#000000;stroke-linecap:square;stroke-linejoin:miter;stroke-width:0.8;"/>
   </g>
   <g id="text_17">
    <text style="font-family:DejaVu Sans;font-size:12px;font-style:normal;font-weight:normal;text-anchor:middle;" transform="rotate(-0, 236.16, 35.472)" x="236.16" y="35.472">Avg. Bits Consumed by 2014 Lin. x*4.0 Algorithm</text>
   </g>
   <g id="legend_1">
    <g id="patch_7">
     <path d="M 233.6325 122.862625 
L 407.72 122.862625 
Q 409.72 122.862625 409.72 120.862625 
L 409.72 48.472 
Q 409.72 46.472 407.72 46.472 
L 233.6325 46.472 
Q 231.6325 46.472 231.6325 48.472 
L 231.6325 120.862625 
Q 231.6325 122.862625 233.6325 122.862625 
z
" style="fill:#ffffff;opacity:0.8;stroke:#cccccc;stroke-linejoin:miter;"/>
    </g>
    <g id="line2d_20">
     <path d="M 235.6325 54.570438 
L 255.6325 54.570438 
" style="fill:none;stroke:#1f77b4;stroke-linecap:square;stroke-width:1.5;"/>
    </g>
    <g id="line2d_21"/>
    <g id="text_18">
     <text style="font-family:DejaVu Sans;font-size:10px;font-style:normal;font-weight:normal;text-anchor:start;" transform="rotate(-0, 263.6325, 58.070438)" x="263.6325" y="58.070438">2014 Lin. x*4.0</text>
    </g>
    <g id="line2d_22">
     <path d="M 235.6325 69.248563 
L 255.6325 69.248563 
" style="fill:none;stroke:#ff7f0e;stroke-linecap:square;stroke-width:1.5;"/>
    </g>
    <g id="line2d_23"/>
    <g id="text_19">
     <text style="font-family:DejaVu Sans;font-size:10px;font-style:normal;font-weight:normal;text-anchor:start;" transform="rotate(-0, 263.6325, 72.748563)" x="263.6325" y="72.748563">2016 Lin. x*4.0</text>
    </g>
    <g id="line2d_24">
     <path d="M 235.6325 83.926688 
L 255.6325 83.926688 
" style="fill:none;stroke:#2ca02c;stroke-linecap:square;stroke-width:1.5;"/>
    </g>
    <g id="line2d_25"/>
    <g id="text_20">
     <text style="font-family:DejaVu Sans;font-size:10px;font-style:normal;font-weight:normal;text-anchor:start;" transform="rotate(-0, 263.6325, 87.426688)" x="263.6325" y="87.426688">Low-Mean Lin. x*4.0</text>
    </g>
    <g id="line2d_26">
     <path d="M 235.6325 98.604813 
L 255.6325 98.604813 
" style="fill:none;stroke:#d62728;stroke-linecap:square;stroke-width:1.5;"/>
    </g>
    <g id="line2d_27"/>
    <g id="text_21">
     <text style="font-family:DejaVu Sans;font-size:10px;font-style:normal;font-weight:normal;text-anchor:start;" transform="rotate(-0, 263.6325, 102.104813)" x="263.6325" y="102.104813">2019x*4.0</text>
    </g>
    <g id="line2d_28">
     <path d="M 235.6325 113.282938 
L 255.6325 113.282938 
" style="fill:none;stroke:#9467bd;stroke-linecap:square;stroke-width:1.5;"/>
    </g>
    <g id="line2d_29"/>
    <g id="text_22">
     <text style="font-family:DejaVu Sans;font-size:10px;font-style:normal;font-weight:normal;text-anchor:start;" transform="rotate(-0, 263.6325, 116.782938)" x="263.6325" y="116.782938">Low-Mean M=0.49999 x*4.0</text>
    </g>
   </g>
  </g>
 </g>
 <defs>
  <clipPath id="p2e6ee8ca19">
   <rect height="266.112" width="357.12" x="57.6" y="41.472"/>
  </clipPath>
 </defs>
</svg>

<svg height="460.8" viewBox="0 0 460.8 345.6" width="614.4" xmlns="http://www.w3.org/2000/svg" xmlns:xlink="http://www.w3.org/1999/xlink"><defs><style>*{stroke-linecap:butt;stroke-linejoin:round}</style></defs><g id="figure_1"><path d="M0 345.6h460.8V0H0z" fill="#fff" id="patch_1"/><g id="axes_1"><path d="M57.6 307.584h357.12V41.472H57.6z" fill="#fff" id="patch_2"/><g id="matplotlib.axis_1"><g id="xtick_1"><g id="line2d_1"><defs><path d="M0 0v3.5" id="m716684e4a2" stroke="#000" stroke-width=".8"/></defs><use x="73.654" xlink:href="#m716684e4a2" y="307.584" stroke="#000" stroke-width=".8"/></g><text x="73.654" y="322.182" font-family="DejaVu Sans" font-size="10" font-weight="400" text-anchor="middle" id="text_1">0.000</text></g><g id="xtick_2"><use x="118.303" xlink:href="#m716684e4a2" y="307.584" stroke="#000" stroke-width=".8" id="line2d_2"/><text x="118.303" y="322.182" font-family="DejaVu Sans" font-size="10" font-weight="400" text-anchor="middle" id="text_2">0.025</text></g><g id="xtick_3"><use x="162.952" xlink:href="#m716684e4a2" y="307.584" stroke="#000" stroke-width=".8" id="line2d_3"/><text x="162.952" y="322.182" font-family="DejaVu Sans" font-size="10" font-weight="400" text-anchor="middle" id="text_3">0.050</text></g><g id="xtick_4"><use x="207.601" xlink:href="#m716684e4a2" y="307.584" stroke="#000" stroke-width=".8" id="line2d_4"/><text x="207.601" y="322.182" font-family="DejaVu Sans" font-size="10" font-weight="400" text-anchor="middle" id="text_4">0.075</text></g><g id="xtick_5"><use x="252.25" xlink:href="#m716684e4a2" y="307.584" stroke="#000" stroke-width=".8" id="line2d_5"/><text x="252.25" y="322.182" font-family="DejaVu Sans" font-size="10" font-weight="400" text-anchor="middle" id="text_5">0.100</text></g><g id="xtick_6"><use x="296.899" xlink:href="#m716684e4a2" y="307.584" stroke="#000" stroke-width=".8" id="line2d_6"/><text x="296.899" y="322.182" font-family="DejaVu Sans" font-size="10" font-weight="400" text-anchor="middle" id="text_6">0.125</text></g><g id="xtick_7"><use x="341.548" xlink:href="#m716684e4a2" y="307.584" stroke="#000" stroke-width=".8" id="line2d_7"/><text x="341.548" y="322.182" font-family="DejaVu Sans" font-size="10" font-weight="400" text-anchor="middle" id="text_7">0.150</text></g><g id="xtick_8"><use x="386.197" xlink:href="#m716684e4a2" y="307.584" stroke="#000" stroke-width=".8" id="line2d_8"/><text x="386.197" y="322.182" font-family="DejaVu Sans" font-size="10" font-weight="400" text-anchor="middle" id="text_8">0.175</text></g><text x="236.16" y="335.861" font-family="DejaVu Sans" font-size="10" font-weight="400" text-anchor="middle" id="text_9">Probability</text></g><g id="matplotlib.axis_2"><g id="ytick_1"><g id="line2d_9"><defs><path d="M0 0h-3.5" id="m9088c9fd09" stroke="#000" stroke-width=".8"/></defs><use x="57.6" xlink:href="#m9088c9fd09" y="303.297" stroke="#000" stroke-width=".8"/></g><text x="50.6" y="307.096" font-family="DejaVu Sans" font-size="10" font-weight="400" text-anchor="end" id="text_10">0</text></g><g id="ytick_2"><use x="57.6" xlink:href="#m9088c9fd09" y="259.239" stroke="#000" stroke-width=".8" id="line2d_10"/><text x="50.6" y="263.038" font-family="DejaVu Sans" font-size="10" font-weight="400" text-anchor="end" id="text_11">100</text></g><g id="ytick_3"><use x="57.6" xlink:href="#m9088c9fd09" y="215.181" stroke="#000" stroke-width=".8" id="line2d_11"/><text x="50.6" y="218.98" font-family="DejaVu Sans" font-size="10" font-weight="400" text-anchor="end" id="text_12">200</text></g><g id="ytick_4"><use x="57.6" xlink:href="#m9088c9fd09" y="171.123" stroke="#000" stroke-width=".8" id="line2d_12"/><text x="50.6" y="174.922" font-family="DejaVu Sans" font-size="10" font-weight="400" text-anchor="end" id="text_13">300</text></g><g id="ytick_5"><use x="57.6" xlink:href="#m9088c9fd09" y="127.065" stroke="#000" stroke-width=".8" id="line2d_13"/><text x="50.6" y="130.864" font-family="DejaVu Sans" font-size="10" font-weight="400" text-anchor="end" id="text_14">400</text></g><g id="ytick_6"><use x="57.6" xlink:href="#m9088c9fd09" y="83.007" stroke="#000" stroke-width=".8" id="line2d_14"/><text x="50.6" y="86.806" font-family="DejaVu Sans" font-size="10" font-weight="400" text-anchor="end" id="text_15">500</text></g><text transform="rotate(-90 25.433 174.528)" x="25.433" y="174.528" font-family="DejaVu Sans" font-size="10" font-weight="400" text-anchor="middle" id="text_16">Average Bits Consumed Per Call</text></g><path clip-path="url(#p2e6ee8ca19)" d="M73.833 260.472l18.036 4.68 18.036-4.028 18.037-.147 18.036-1.339 18.037 2.174 18.036-1.597 18.036-2.137 18.037.252L236.16 255m36.073-2.279l18.036.258 18.036-3.882 18.037-2.757m54.109-19.99" fill="none" stroke="#1f77b4" stroke-linecap="square" stroke-width="1.5" id="line2d_15"/><path clip-path="url(#p2e6ee8ca19)" d="M73.833 255.556l18.036 1.134 18.036.224 18.037-7.942 18.036 1.063 18.037.797 18.036-.305 18.036-12.583 18.037 3.51 18.036-8.48 18.036-1.294 18.037-12.51 18.036 3.39 18.036-12.679 18.037-4.911 18.036-15.583 18.037.799m36.072-23.36" fill="none" stroke="#ff7f0e" stroke-linecap="square" stroke-width="1.5" id="line2d_16"/><path clip-path="url(#p2e6ee8ca19)" d="M73.833 295.488l18.036-1.166 18.036-3.183 18.037-.555 18.036-.618 18.037-1.898 18.036-3.22 18.036-.472 18.037-11.295 18.036-4.975 18.036-9.043 18.037-3.256 18.036-17.67" fill="none" stroke="#2ca02c" stroke-linecap="square" stroke-width="1.5" id="line2d_17"/><path clip-path="url(#p2e6ee8ca19)" d="M73.833 278.399l18.036.706 18.036.495 18.037-8.556 18.036 2.08 18.037-.459 18.036-.786 18.036-.74 18.037-4.242 18.036-2.525 18.036-3.058 18.037-8.873 18.036-2.945 18.036-5.01 18.037-3.835 18.036-11.275 18.037-.225" fill="none" stroke="#d62728" stroke-linecap="square" stroke-width="1.5" id="line2d_18"/><path clip-path="url(#p2e6ee8ca19)" d="M91.87 53.568l18.035 102.008 18.037 34.176 18.036 7.03 18.037 8.517 18.036 7.398 18.036 7.073 18.037-8.375 18.036 15.657" fill="none" stroke="#9467bd" stroke-linecap="square" stroke-width="1.5" id="line2d_19"/><path d="M57.6 307.584V41.472" fill="none" stroke="#000" stroke-linecap="square" stroke-width=".8" id="patch_3"/><path d="M414.72 307.584V41.472" fill="none" stroke="#000" stroke-linecap="square" stroke-width=".8" id="patch_4"/><path d="M57.6 307.584h357.12" fill="none" stroke="#000" stroke-linecap="square" stroke-width=".8" id="patch_5"/><path d="M57.6 41.472h357.12" fill="none" stroke="#000" stroke-linecap="square" stroke-width=".8" id="patch_6"/><text x="236.16" y="35.472" font-family="DejaVu Sans" font-size="12" font-weight="400" text-anchor="middle" id="text_17">Avg. Bits Consumed by 2014 Lin. x*4.0 Algorithm</text><g id="legend_1"><path d="M233.632 122.863H407.72q2 0 2-2V48.472q0-2-2-2H233.632q-2 0-2 2v72.39q0 2 2 2z" fill="#fff" opacity=".8" stroke="#ccc" id="patch_7"/><path d="M235.632 54.57h20" fill="none" stroke="#1f77b4" stroke-linecap="square" stroke-width="1.5" id="line2d_20"/><text x="263.632" y="58.07" font-family="DejaVu Sans" font-size="10" font-weight="400" id="text_18">2014 Lin. x*4.0</text><path d="M235.632 69.249h20" fill="none" stroke="#ff7f0e" stroke-linecap="square" stroke-width="1.5" id="line2d_22"/><text x="263.632" y="72.749" font-family="DejaVu Sans" font-size="10" font-weight="400" id="text_19">2016 Lin. x*4.0</text><path d="M235.632 83.927h20" fill="none" stroke="#2ca02c" stroke-linecap="square" stroke-width="1.5" id="line2d_24"/><text x="263.632" y="87.427" font-family="DejaVu Sans" font-size="10" font-weight="400" id="text_20">Low-Mean Lin. x*4.0</text><path d="M235.632 98.605h20" fill="none" stroke="#d62728" stroke-linecap="square" stroke-width="1.5" id="line2d_26"/><text x="263.632" y="102.105" font-family="DejaVu Sans" font-size="10" font-weight="400" id="text_21">2019x*4.0</text><path d="M235.632 113.283h20" fill="none" stroke="#9467bd" stroke-linecap="square" stroke-width="1.5" id="line2d_28"/><text x="263.632" y="116.783" font-family="DejaVu Sans" font-size="10" font-weight="400" id="text_22">Low-Mean M=0.49999 x*4.0</text></g></g></g><defs><clipPath id="p2e6ee8ca19"><path d="M57.6 41.472h357.12v266.112H57.6z"/></clipPath></defs></svg>
